X: 8434
T: Crabs In The Skillet
R: jig
M: 6/8
K: Gminor
|:G,B,D GBd|c2c dcA|BAB Adc|AGF DB,A,|
G,B,D GBd|c2c dcA|BAB Adc|1 AGF G3:|2 AGF GFE||
|:D2G ABc|d2B c3|Add cBA|dcB AGF|
D2G ABc|d2B c3|cAc fed|1 cAF GFE:|cAF GBd||
|:fgg fgg|fag f=ed|^cde fed|^cde fed|
B2f g2g|fag f=ed|^cde fed|1 cAF GBd:|2 cAF GDB,||

